X: 35638
T: Sailing Through Loughrea
R: reel
M: 4/4
K: Dmixolydian
Add^c dcAB|cE E2 cEGE|D2 (3EFG Adde|f2 ed ^cAAG|
Adde f2 ed|^cAAB =cA G2|Add^c AB=cG|E2 cE ED D2:|
d3 ^c dcAB|c2 Bd cAGc|Add^c d2 cd|eaag efge|
afdf afdB|=cdef g2 fg|a3 f gfgf|eaag edd^c:|

